Papirus/22x22/apps/jockey.svg

<?xml version="1.0" encoding="UTF-8" standalone="no"?>
<svg xmlns="http://www.w3.org/2000/svg" height="22" width="22" version="1">
 <path fill="#419d45" d="m5 3.9849c-0.554 0-1 0.446-1 1v11c0 0.554 0.446 1 1 1h1.5v-2h5v2h9.5c0.554 0 1-0.446 1-1v-11c0-0.554-0.446-1-1-1z"/>
 <path opacity=".1" fill="#fff" d="m5 3.9849c-0.554 0-1 0.446-1 1v0.5c0-0.554 0.446-1 1-1h16c0.554 0 1 0.446 1 1v-0.5c0-0.554-0.446-1-1-1h-16z"/>
 <path opacity=".2" d="m6.5 14.985v0.5h5v-0.5h-5zm-2.5 1v0.5c0 0.554 0.446 1 1 1h1.5v-0.5h-1.5c-0.554 0-1-0.446-1-1zm18 0c0 0.554-0.446 1-1 1h-9.5v0.5h9.5c0.554 0 1-0.446 1-1v-0.5z"/>
 <rect height="3" width="2" y="14.98" x="12" fill="#f8c44e"/>
 <rect height="3" width="2" y="14.98" x="14.5" fill="#f8c44e"/>
 <rect height="3" width="2" y="14.98" x="17" fill="#f8c44e"/>
 <rect height="3" width="2" y="14.98" x="19.5" fill="#f8c44e"/>
 <rect rx="1" ry="1" height="5" width="5" y="6.99" x="10" fill="#4e4e4e"/>
 <g fill="#b7b7b7" transform="matrix(.5 0 0 .5 -1 -1.5151)">
  <g>
   <rect y="15" x="24" height="3" width="2"/>
   <rect y="15" x="28" height="3" width="2"/>
  </g>
  <g transform="translate(0,11)">
   <rect y="15" x="24" height="3" width="2"/>
   <rect y="15" x="28" height="3" width="2"/>
  </g>
 </g>
 <g fill="#b7b7b7" transform="matrix(0 .5 -.5 0 23.5 -4.0151)">
  <g>
   <rect y="15" x="24" height="3" width="2"/>
   <rect y="15" x="28" height="3" width="2"/>
  </g>
  <g transform="translate(0,11)">
   <rect y="15" x="24" height="3" width="2"/>
   <rect y="15" x="28" height="3" width="2"/>
  </g>
 </g>
 <path opacity=".2" d="m12 17.985v0.5h2v-0.5h-2zm2.5 0v0.5h2v-0.5h-2zm2.5 0v0.5h2v-0.5h-2zm2.5 0v0.5h2v-0.5h-2z"/>
 <path d="m2.0106 1.985a0.99653 0.9993 0 1 0 0 1.9984h0.99643v14.988a0.99653 0.9993 0 1 0 1.9929 0v-15.987a0.99653 0.9993 0 0 0 -0.9964 -0.999h-1.9929z" fill="#9ea7a9"/>
 <path opacity=".2" d="m2.0098 1.9849a0.99653 0.9993 0 0 0 -0.97656 1.25 0.99653 0.9993 0 0 1 0.97656 -0.75h1.9941a0.99653 0.9993 0 0 1 0.99609 1v-0.5a0.99653 0.9993 0 0 0 -0.99609 -1h-1.9941z" fill="#fff"/>
 <path opacity=".2" style="color:#000000;" d="m1.0332 3.2349a0.99653 0.9993 0 0 0 0.97656 1.248h0.99805v-0.5h-0.99805a0.99653 0.9993 0 0 1 -0.9766 -0.748zm1.9746 15.736v0.5a0.99653 0.9993 0 1 0 1.9922 0v-0.5a0.99653 0.9993 0 1 1 -1.9922 0z"/>
</svg>

<svg xmlns="http://www.w3.org/2000/svg" width="22" height="22" version="1">
 <path style="opacity:0.2" d="M 5,4.4997 C 4.446,4.4997 4,4.9457 4,5.4997 V 16.5 C 4,17.054 4.446,17.5 5,17.5 H 6.5 V 15.5 H 11.5 V 17.5 H 21 C 21.554,17.5 22,17.054 22,16.5 V 5.4997 C 22,4.9457 21.554,4.4997 21,4.4997 Z"/>
 <path style="fill:#419d45" d="M 5,3.9997 C 4.446,3.9997 4,4.4457 4,4.9997 V 16 C 4,16.554 4.446,17 5,17 H 6.5 V 15 H 11.5 V 17 H 21 C 21.554,17 22,16.554 22,16 V 4.9997 C 22,4.4457 21.554,3.9997 21,3.9997 Z"/>
 <path style="opacity:0.1;fill:#ffffff" d="M 5,3.9846 C 4.446,3.9846 4,4.4306 4,4.9846 V 5.4846 C 4,4.9306 4.446,4.4846 5,4.4846 H 21 C 21.554,4.4846 22,4.9306 22,5.4846 V 4.9846 C 22,4.4306 21.554,3.9846 21,3.9846 Z"/>
 <g style="opacity:0.2">
  <rect width="2" height="3" x="12" y="15.5"/>
  <rect width="2" height="3" x="14.5" y="15.5"/>
  <rect width="2" height="3" x="17" y="15.5"/>
  <rect width="2" height="3" x="19.5" y="15.5"/>
 </g>
 <g style="fill:#f8c44e">
  <rect width="2" height="3" x="12" y="15"/>
  <rect width="2" height="3" x="14.5" y="15"/>
  <rect width="2" height="3" x="17" y="15"/>
  <rect width="2" height="3" x="19.5" y="15"/>
 </g>
 <rect style="fill:#4e4e4e" width="5" height="5" x="10" y="7" rx="1" ry="1"/>
 <g style="fill:#b7b7b7">
  <rect width="1" height="1.5" x="11" y="6"/>
  <rect width="1" height="1.5" x="13" y="6"/>
  <rect width="1" height="1.5" x="11" y="11.5"/>
  <rect width="1" height="1.5" x="13" y="11.5"/>
  <rect width="1" height="1.5" x="8" y="-16" transform="rotate(90)"/>
  <rect width="1" height="1.5" x="10" y="-16" transform="rotate(90)"/>
  <rect width="1" height="1.5" x="8" y="-10.5" transform="rotate(90)"/>
  <rect width="1" height="1.5" x="10" y="-10.5" transform="rotate(90)"/>
 </g>
 <path style="opacity:0.2;fill:none;stroke:#000000;stroke-width:2;stroke-linecap:round;stroke-linejoin:round" d="M 2,3.5 H 4 V 19.5"/>
 <path style="fill:none;stroke:#b7b7b7;stroke-width:2;stroke-linecap:round;stroke-linejoin:round" d="M 2,3 H 4 V 19"/>
 <path style="opacity:0.2;fill:#ffffff" d="M 2,1.9997 A 1.0001,1.0001 0 0 0 1.0195,3.2458 1.0001,1.0001 0 0 1 2,2.4997 H 4 A 1.0001,1.0001 0 0 1 5,3.4997 V 2.9997 A 1.0001,1.0001 0 0 0 4,1.9997 Z"/>
</svg>
